X: 3035
T: BRISK BOB
Q:"Strathspey."
R: Strathspey.
%R:strathspey
B: James Kerr "Merry Melodies" v.3 p.6 #35
Z: 2016 John Chambers <jc:trillian.mit.edu>
M: C
L: 1/16
K: Bm
(uBc) |:\
vd3vBuf3uB dB3 B3c | d3e fedc dA3 A2(Bc) |\
[1 d3Bf3B dB3 B3d | (efg2) f3e dB3 B3c :|\
[2 B3dc3e d3fe3g | fd3 fedc dB3 B2 |]\
f2 |\
a3fg3e f3dB3c |
d3B fedc eA3 A3f |\
a3fg3e f3dB3g | f3d fedc d3B B3f |\
a3fg3e f3dB3c | d3B fedc eA3 A2(Bc) |\
d3Be3c f3dg3e | f3d fedc dB3 B2 |]

%%sep 1 1 500
%%sep 1 1 500

